images/liked-hover.svg

<svg width="21" height="19" viewBox="0 0 21 19" fill="none" xmlns="http://www.w3.org/2000/svg">
<path opacity="0.5" d="M19.3764 9.78586C21.5412 7.54338 21.5412 3.90213 19.3764 1.68186C17.2115 -0.560619 13.6964 -0.560619 11.5315 1.68186L10.4812 2.792L9.43098 1.70406C7.26614 -0.560619 3.75096 -0.560619 1.60755 1.68186C0.557285 2.76979 0 4.21297 0 5.74496C0 7.27695 0.578719 8.72013 1.60755 9.80806L10.4812 19L19.3764 9.78586ZM1.37178 5.74496C1.37178 4.59042 1.80046 3.52469 2.59352 2.72539C3.40801 1.88168 4.45828 1.45983 5.50855 1.45983C6.55882 1.45983 7.60909 1.88168 8.42358 2.72539L10.4812 4.83465L12.5389 2.70318C14.1465 1.03798 16.7829 1.03798 18.369 2.70318C19.1406 3.50248 19.5907 4.56821 19.5907 5.72276C19.5907 6.8773 19.162 7.94303 18.369 8.74233L10.4812 16.9351L2.59352 8.76453C1.82189 7.94303 1.37178 6.8773 1.37178 5.74496Z" fill="black"/>
</svg>

<svg width="21" height="19" fill="none" xmlns="http://www.w3.org/2000/svg"><path opacity=".5" d="M19.376 9.786c2.165-2.243 2.165-5.884 0-8.104a5.415 5.415 0 0 0-7.845 0l-1.05 1.11-1.05-1.088C7.266-.56 3.751-.56 1.608 1.682.558 2.77 0 4.213 0 5.745 0 7.277.579 8.72 1.608 9.808L10.48 19l8.895-9.214ZM1.372 5.745c0-1.155.428-2.22 1.222-3.02.814-.843 1.864-1.265 2.915-1.265 1.05 0 2.1.422 2.915 1.265l2.057 2.11 2.058-2.132a4.026 4.026 0 0 1 5.83 0 4.327 4.327 0 0 1 1.222 3.02c0 1.154-.429 2.22-1.222 3.02l-7.888 8.192-7.887-8.17c-.772-.822-1.222-1.888-1.222-3.02Z" fill="#000"/></svg>
